src/images_karasa_jaga_svg/cmd/lc_starshapes.signet.svg

<svg height="24" viewBox="0 0 24 24" width="24" xmlns="http://www.w3.org/2000/svg" xmlns:xlink="http://www.w3.org/1999/xlink"><linearGradient id="a"><stop offset="0" stop-color="#fff"/><stop offset=".46428573" stop-color="#fff"/><stop offset=".8125" stop-color="#f1f1f1"/><stop offset=".90625" stop-color="#eaeaea"/><stop offset="1" stop-color="#dfdfdf"/></linearGradient><linearGradient id="b"><stop offset="0" stop-color="#7c9fcf"/><stop offset=".5" stop-color="#7c9ece"/><stop offset="1" stop-color="#7b9dcf"/></linearGradient><linearGradient id="c" gradientUnits="userSpaceOnUse" x1="40.7267" x2="40.47567" xlink:href="#a" y1="128" y2="1.530182"/><linearGradient id="d" gradientUnits="userSpaceOnUse" x1="52.3629" x2="52.3629" xlink:href="#a" y1="122.1819" y2=".0018"/><linearGradient id="e" gradientUnits="userSpaceOnUse" x1=".447661" x2="94.673775" xlink:href="#b" y1="47.082481" y2="47.082481"/><linearGradient id="f" gradientUnits="userSpaceOnUse" x1="43.794052" x2="125.6533" xlink:href="#b" y1="97.387817" y2="97.387817"/><g transform="matrix(.171875 0 0 .171875 1 1)"><path d="m35.613281-.02734375c-9.013284.01159657-17.597224 6.04665315-21.050781 14.31249975-2.141082.882404-4.196448 1.965445-5.9746094 3.449219-.00391.0039-.00782.0078-.011719.01172-4.567523 3.832987-7.5296403 9.522815-8.04882815 15.46289-.42947766 4.913694.89652105 9.895707 3.50976565 14.074219-2.0425092 3.73512-3.09527639 8.018832-2.8515625 12.271485v.0059c.3469848 5.951986 3.1418483 11.723951 7.5957031 15.6875 3.6838913 3.278347 8.4717253 5.191739 13.3828123 5.591797 1.77601 3.869462 4.583713 7.270707 8.140626 9.615234l.0059.0039c4.981853 3.276073 11.281866 4.4816 17.121094 3.275391 4.829717-.997675 9.221248-3.697441 12.474609-7.398437 4.165124.886725 8.572661.666268 12.578125-.78711l.0039-.002c5.602953-2.039049 10.333449-6.371683 12.853516-11.775391 2.085003-4.470813 2.542098-9.606745 1.515625-14.427734 3.196535-2.810586 5.650991-6.475997 6.876953-10.554688l.002-.0059c1.709782-5.711847 1.058244-12.0917-1.771566-17.339792-2.340536-4.340696-6.185836-7.776443-10.664063-9.832031-.345586-4.242912-1.821301-8.401034-4.361328-11.8203124l-.0039-.00391c-3.560527-4.7824782-9.067425-8.0694308-14.966803-8.93358998-4.879201-.71472039-9.929006.31737138-14.251953 2.68164058-3.610701-2.2581638-7.828627-3.55812421-12.089844-3.56249995-.0046-.00000524-.0091-.00000524-.01367 0zm11.88086 25.73046875a21.522097 21.522097 0 0 1 21.521484 21.521484 21.522097 21.522097 0 0 1 -21.521484 21.521485 21.522097 21.522097 0 0 1 -21.521485-21.521485 21.522097 21.522097 0 0 1 21.521485-21.521484z" fill="url(#e)"/><path d="m35.622012 5.920515a16.828112 16.828112 0 0 0 -16.350567 12.932358 16.828112 16.828112 0 0 0 -6.873155 3.44721 16.828112 16.828112 0 0 0 -2.07258 23.709 16.828112 16.828112 0 0 0 1.005357 1.078825 16.828112 16.828112 0 0 0 -4.208962 12.126139 16.828112 16.828112 0 0 0 17.7774 15.820821 16.828112 16.828112 0 0 0 1.4655-.162403 16.828112 16.828112 0 0 0 7.213429 10.618105 16.828112 16.828112 0 0 0 23.306857-4.814109 16.828112 16.828112 0 0 0 .746283-1.272161 16.828112 16.828112 0 0 0 12.824088.55488 16.828112 16.828112 0 0 0 10.057425-21.568753 16.828112 16.828112 0 0 0 -.576146-1.359163 16.828112 16.828112 0 0 0 8.102783-9.953024 16.828112 16.828112 0 0 0 -11.294787-20.948137 16.828112 16.828112 0 0 0 -1.432633-.349942 16.828112 16.828112 0 0 0 -3.145603-12.443213 16.828112 16.828112 0 0 0 -23.54853-3.4491439 16.828112 16.828112 0 0 0 -1.134892.9396209 16.828112 16.828112 0 0 0 -11.861267-4.90691zm11.952136 14.235453a26.929541 26.929541 0 0 1 26.928072 26.930006 26.929541 26.929541 0 0 1 -26.928072 26.928071 26.929541 26.929541 0 0 1 -26.930006-26.928071 26.929541 26.929541 0 0 1 26.930006-26.930006z" fill="url(#c)"/><g fill-rule="evenodd"><path d="m65.3125 62.289062c-.988861-.04359-1.940749.08682-2.621094.339844-2.066237.768439-2.599876 1.612562-3.03125 2.019532-.431374.406969-.617143.520357-.365234.361328a5.799346 5.799346 0 0 0 0 .002l-3.523438 2.224609a5.799346 5.799346 0 0 0 -2.6875 4.472656c-1.153008 15.487704-2.22339 29.506559-4.271484 44.626959-.401824.76907-1.472126 2.79213-2.566406 4.77539-.666827.60738-1.357987 1.40389-1.904297 2.90625-.09658.26559-.182917.5099-.275391.83203-.09247.32212-.298838.42279-.269531 1.93945.01465.75833-.257122 2.86328 2.609375 4.76172 1.433249.94922 3.295088 1.06863 4.367188.85156 1.072099-.21706 1.622388-.56775 2.013671-.82031 1.565133-1.01023 1.406444-1.25061 1.605469-1.51367.278086-.36755.351035-.57009.523438-.8418.667084-.20199 3.870849-1.40266 6.953125-1.95898 3.487886-.62953 6.550781-.91797 6.550781-.91797a5.799346 5.799346 0 0 0 5.248047-5.38477c.54858-8.15631.787108-16.14591.341797-24.109374 4.662108 5.094404 9.183557 9.855804 11.71289 13.556644l-.185547-.28716c.978296 1.6305 2.501447 2.39159 3.460938 2.68359s1.588506.29463 2.101562.28711c1.026112-.015 1.654213-.16494 2.316407-.32226 1.324386-.31466 2.636768-.76704 4.152343-1.33203 3.031151-1.13 6.723711-2.71669 10.382811-4.35547 7.31821-3.27756 14.44531-6.75391 14.44531-6.75391a5.799346 5.799346 0 0 0 -1.66796-10.945311c-20.49748-3.119339-33.016408-15.851084-52.574223-26.390625-.827827-.446109-1.852936-.663441-2.841797-.707032z" fill="url(#f)"/><path d="m58.86664 72.138565c-1.178229 15.826486-2.250971 30.240705-4.419418 45.961945 0 0-6.071068 11.78858-4.656854 7.89949 1.414213-3.88909 18.091883-5.42462 18.091883-5.42462 1.077165-16.01534.906354-30.901625-3.217515-46.108388 5.114258 11.654674 19.32693 23.136432 25.844932 32.673358 1.06066 1.76777 29.344932-12.020815 29.344932-12.020815-22.416209-3.411335-35.789009-16.960712-54.450434-27.017196-.933213-.5029-1.783823 1.035227-3.013533 1.811539z" fill="url(#d)"/></g></g></svg>

<?xml version="1.0" encoding="UTF-8" standalone="no"?>
<svg
   xmlns:dc="http://purl.org/dc/elements/1.1/"
   xmlns:cc="http://creativecommons.org/ns#"
   xmlns:rdf="http://www.w3.org/1999/02/22-rdf-syntax-ns#"
   xmlns:svg="http://www.w3.org/2000/svg"
   xmlns="http://www.w3.org/2000/svg"
   xmlns:xlink="http://www.w3.org/1999/xlink"
   xmlns:sodipodi="http://sodipodi.sourceforge.net/DTD/sodipodi-0.dtd"
   xmlns:inkscape="http://www.inkscape.org/namespaces/inkscape"
   height="128"
   viewBox="0 0 128 128"
   width="128"
   version="1.1"
   id="svg2866"
   sodipodi:docname="lc_starshapes.signet.svg"
   inkscape:version="0.92.3 (unknown)"
   inkscape:export-filename="/home/rizmut/Dokumen/Rizmut/Github/libreoffice-style-karasa-jaga/build/images_karasa_jaga/cmd/lc_starshapes.signet.png"
   inkscape:export-xdpi="16.5"
   inkscape:export-ydpi="16.5">
  <metadata
     id="metadata2872">
    <rdf:RDF>
      <cc:Work
         rdf:about="">
        <dc:format>image/svg+xml</dc:format>
        <dc:type
           rdf:resource="http://purl.org/dc/dcmitype/StillImage" />
        <dc:title></dc:title>
      </cc:Work>
    </rdf:RDF>
  </metadata>
  <defs
     id="defs2870">
    <linearGradient
       id="linearGradient3369">
      <stop
         id="stop3372"
         offset="0"
         style="stop-color:#ffffff;stop-opacity:1;" />
      <stop
         style="stop-color:#ffffff;stop-opacity:1;"
         offset="0.46428573"
         id="stop3374" />
      <stop
         style="stop-color:#f1f1f1;stop-opacity:1;"
         offset="0.8125"
         id="stop3376" />
      <stop
         id="stop3378"
         offset="0.90625"
         style="stop-color:#eaeaea;stop-opacity:1;" />
      <stop
         id="stop3384"
         offset="1"
         style="stop-color:#dfdfdf;stop-opacity:1;" />
    </linearGradient>
    <linearGradient
       id="linearGradient7422">
      <stop
         style="stop-color:#7c9fcf;stop-opacity:1"
         offset="0"
         id="stop7424" />
      <stop
         id="stop5348"
         offset="0.5"
         style="stop-color:#7c9ece;stop-opacity:1" />
      <stop
         id="stop7426"
         offset="1"
         style="stop-color:#7b9dcf;stop-opacity:1" />
    </linearGradient>
    <linearGradient
       inkscape:collect="always"
       xlink:href="#linearGradient3369"
       id="linearGradient1066"
       x1="40.7267"
       y1="128"
       x2="40.47567"
       y2="1.5301822"
       gradientUnits="userSpaceOnUse" />
    <linearGradient
       inkscape:collect="always"
       xlink:href="#linearGradient3369"
       id="linearGradient1074"
       x1="52.3629"
       y1="122.1819"
       x2="52.3629"
       y2="0.0018"
       gradientUnits="userSpaceOnUse" />
    <linearGradient
       inkscape:collect="always"
       xlink:href="#linearGradient7422"
       id="linearGradient1110"
       x1="0.44766116"
       y1="47.082481"
       x2="94.673775"
       y2="47.082481"
       gradientUnits="userSpaceOnUse" />
    <linearGradient
       inkscape:collect="always"
       xlink:href="#linearGradient7422"
       id="linearGradient1112"
       x1="43.794052"
       y1="97.387817"
       x2="125.6533"
       y2="97.387817"
       gradientUnits="userSpaceOnUse" />
  </defs>
  <sodipodi:namedview
     pagecolor="#ffffff"
     bordercolor="#666666"
     borderopacity="1"
     objecttolerance="10"
     gridtolerance="10"
     guidetolerance="10"
     inkscape:pageopacity="0"
     inkscape:pageshadow="2"
     inkscape:window-width="1366"
     inkscape:window-height="706"
     id="namedview2868"
     showgrid="true"
     inkscape:zoom="1.3037281"
     inkscape:cx="-13.669117"
     inkscape:cy="28.729036"
     inkscape:window-x="0"
     inkscape:window-y="0"
     inkscape:window-maximized="1"
     inkscape:current-layer="svg2866"
     inkscape:snap-global="false"
     inkscape:snap-smooth-nodes="true">
    <inkscape:grid
       type="xygrid"
       id="grid13293"
       spacingx="5.8181"
       spacingy="5.8181"
       empspacing="1" />
  </sodipodi:namedview>
  <linearGradient
     id="a"
     gradientUnits="userSpaceOnUse"
     x1="1.789204"
     x2="1.376028"
     y1="56.265892"
     y2="104.97279">
    <stop
       offset="0"
       stop-color="#f9f9fa"
       id="stop2853" />
    <stop
       offset="1"
       stop-color="#f9f9fa"
       stop-opacity="0"
       id="stop2855" />
  </linearGradient>
  <path
     style="opacity:1;fill:url(#linearGradient1110);fill-opacity:1.0;stroke:none;stroke-width:3.46461129;stroke-linecap:round;stroke-linejoin:bevel;stroke-miterlimit:4;stroke-dasharray:none;stroke-dashoffset:0;stroke-opacity:0.72941176"
     d="M 35.613281 -0.02734375 C 26.599997 -0.01574718 18.016057 6.0193094 14.5625 14.285156 C 12.421418 15.16756 10.366052 16.250601 8.5878906 17.734375 C 8.5839806 17.738275 8.5800709 17.742174 8.5761719 17.746094 C 4.0086489 21.579081 1.0465316 27.268909 0.52734375 33.208984 C 0.09786609 38.122678 1.4238648 43.104691 4.0371094 47.283203 C 1.9946002 51.018323 0.94183301 55.302035 1.1855469 59.554688 L 1.1855469 59.560547 C 1.5325317 65.512533 4.3273952 71.284498 8.78125 75.248047 C 12.465141 78.526394 17.252975 80.439786 22.164062 80.839844 C 23.940072 84.709306 26.747775 88.110551 30.304688 90.455078 L 30.310547 90.458984 C 35.2924 93.735057 41.592413 94.940584 47.431641 93.734375 C 52.261358 92.7367 56.652889 90.036934 59.90625 86.335938 C 64.071374 87.222663 68.478911 87.002206 72.484375 85.548828 L 72.488281 85.546875 C 78.091234 83.507826 82.82173 79.175192 85.341797 73.771484 C 87.4268 69.300671 87.883895 64.164739 86.857422 59.34375 C 90.053957 56.533164 92.508413 52.867753 93.734375 48.789062 L 93.736328 48.783203 C 95.446192 43.071304 94.794654 36.691451 91.964844 31.443359 C 89.624308 27.102663 85.779008 23.666916 81.300781 21.611328 C 80.955195 17.368416 79.47948 13.210294 76.939453 9.7910156 L 76.935547 9.7871094 C 73.375026 5.0046274 67.868128 1.7176748 61.96875 0.85351562 C 57.089549 0.13879523 52.039744 1.170887 47.716797 3.5351562 C 44.106096 1.2769924 39.88817 -0.02296801 35.626953 -0.02734375 C 35.622353 -0.02734899 35.617851 -0.02734899 35.613281 -0.02734375 z M 47.494141 25.703125 A 21.522097 21.522097 0 0 1 69.015625 47.224609 A 21.522097 21.522097 0 0 1 47.494141 68.746094 A 21.522097 21.522097 0 0 1 25.972656 47.224609 A 21.522097 21.522097 0 0 1 47.494141 25.703125 z "
     id="path1076" />
  <path
     inkscape:connector-curvature="0"
     style="opacity:1;fill:url(#linearGradient1066);fill-opacity:1;stroke:none;stroke-width:3.46461129;stroke-linecap:round;stroke-linejoin:bevel;stroke-miterlimit:4;stroke-dasharray:none;stroke-dashoffset:0;stroke-opacity:0.72941176"
     d="m 35.622012,5.920515 a 16.828112,16.828112 0 0 0 -16.350567,12.932358 16.828112,16.828112 0 0 0 -6.873155,3.44721 16.828112,16.828112 0 0 0 -2.07258,23.709 16.828112,16.828112 0 0 0 1.005357,1.078825 16.828112,16.828112 0 0 0 -4.208962,12.126139 16.828112,16.828112 0 0 0 17.7774,15.820821 16.828112,16.828112 0 0 0 1.4655,-0.162403 A 16.828112,16.828112 0 0 0 33.578434,85.49057 16.828112,16.828112 0 0 0 56.885291,80.676461 16.828112,16.828112 0 0 0 57.631574,79.4043 16.828112,16.828112 0 0 0 70.455662,79.95918 16.828112,16.828112 0 0 0 80.513087,58.390427 16.828112,16.828112 0 0 0 79.936941,57.031264 16.828112,16.828112 0 0 0 88.039724,47.07824 16.828112,16.828112 0 0 0 76.744937,26.130103 16.828112,16.828112 0 0 0 75.312304,25.780161 16.828112,16.828112 0 0 0 72.166701,13.336948 16.828112,16.828112 0 0 0 48.618171,9.8878041 16.828112,16.828112 0 0 0 47.483279,10.827425 16.828112,16.828112 0 0 0 35.622012,5.920515 Z M 47.574148,20.155968 A 26.929541,26.929541 0 0 1 74.50222,47.085974 26.929541,26.929541 0 0 1 47.574148,74.014045 26.929541,26.929541 0 0 1 20.644142,47.085974 26.929541,26.929541 0 0 1 47.574148,20.155968 Z"
     id="path1518" />
  <path
     sodipodi:type="inkscape:offset"
     inkscape:radius="5.7987661"
     inkscape:original="M 64.712891 68.064453 C 64.022315 68.32128 63.312908 69.331829 62.390625 69.914062 L 58.867188 72.138672 C 57.688958 87.965158 56.615713 102.37837 54.447266 118.09961 C 54.447266 118.09961 52.288368 122.25816 50.847656 124.79492 C 54.777302 121.79753 67.882812 120.57617 67.882812 120.57617 C 68.959977 104.56083 68.787932 89.67356 64.664062 74.466797 C 69.778321 86.121471 83.991764 97.603699 90.509766 107.14062 C 91.570426 108.90839 119.85547 95.119141 119.85547 95.119141 C 97.43926 91.707806 84.065722 78.158046 65.404297 68.101562 C 65.170994 67.975837 64.943083 67.978844 64.712891 68.064453 z M 50.847656 124.79492 C 50.353996 125.17147 49.948848 125.56596 49.791016 126 C 49.240933 127.51273 49.930537 126.40975 50.847656 124.79492 z "
     style="fill:url(#linearGradient1112);fill-opacity:1.0;fill-rule:evenodd;stroke:none;stroke-width:3.5;stroke-linecap:butt;stroke-linejoin:miter;stroke-miterlimit:4;stroke-dasharray:none;stroke-opacity:0.72941176"
     id="path1084"
     d="m 65.3125,62.289062 c -0.988861,-0.04359 -1.940749,0.08682 -2.621094,0.339844 -2.066237,0.768439 -2.599876,1.612562 -3.03125,2.019532 -0.431374,0.406969 -0.617143,0.520357 -0.365234,0.361328 a 5.799346,5.799346 0 0 0 0,0.002 l -3.523438,2.224609 a 5.799346,5.799346 0 0 0 -2.6875,4.472656 c -1.153008,15.487704 -2.22339,29.506556 -4.271484,44.626956 -0.401824,0.76907 -1.472126,2.79213 -2.566406,4.77539 -0.666827,0.60738 -1.357987,1.40389 -1.904297,2.90625 -0.09658,0.26559 -0.182917,0.5099 -0.275391,0.83203 -0.09247,0.32212 -0.298838,0.42279 -0.269531,1.93945 0.01465,0.75833 -0.257122,2.86328 2.609375,4.76172 1.433249,0.94922 3.295088,1.06863 4.367188,0.85156 1.072099,-0.21706 1.622388,-0.56775 2.013671,-0.82031 1.565133,-1.01023 1.406444,-1.25061 1.605469,-1.51367 0.278086,-0.36755 0.351035,-0.57009 0.523438,-0.8418 0.667084,-0.20199 3.870849,-1.40266 6.953125,-1.95898 3.487886,-0.62953 6.550781,-0.91797 6.550781,-0.91797 a 5.799346,5.799346 0 0 0 5.248047,-5.38477 c 0.54858,-8.15631 0.787108,-16.14591 0.341797,-24.109371 4.662108,5.094401 9.183557,9.855801 11.71289,13.556641 L 85.537109,110.125 c 0.978296,1.6305 2.501447,2.39159 3.460938,2.68359 0.959491,0.292 1.588506,0.29463 2.101562,0.28711 1.026112,-0.015 1.654213,-0.16494 2.316407,-0.32226 1.324386,-0.31466 2.636768,-0.76704 4.152343,-1.33203 3.031151,-1.13 6.723711,-2.71669 10.382811,-4.35547 7.31821,-3.27756 14.44531,-6.75391 14.44531,-6.75391 A 5.799346,5.799346 0 0 0 120.72852,89.386719 C 100.23104,86.26738 87.712112,73.535635 68.154297,62.996094 67.32647,62.549985 66.301361,62.332653 65.3125,62.289062 Z" />
  <path
     style="fill:url(#linearGradient1074);fill-opacity:1;fill-rule:evenodd;stroke:none;stroke-width:3.5;stroke-linecap:butt;stroke-linejoin:miter;stroke-miterlimit:4;stroke-dasharray:none;stroke-opacity:0.72941176"
     d="m 58.86664,72.138565 c -1.178229,15.826486 -2.250971,30.240705 -4.419418,45.961945 0,0 -6.071068,11.78858 -4.656854,7.89949 1.414213,-3.88909 18.091883,-5.42462 18.091883,-5.42462 1.077165,-16.01534 0.906354,-30.901625 -3.217515,-46.108388 5.114258,11.654674 19.32693,23.136432 25.844932,32.673358 C 91.570328,108.90812 119.8546,95.119535 119.8546,95.119535 97.438391,91.7082 84.065591,78.158823 65.404166,68.102339 c -0.933213,-0.5029 -1.783823,1.035227 -3.013533,1.811539 z"
     id="path1536"
     inkscape:connector-curvature="0"
     sodipodi:nodetypes="ccsccccssc" />
</svg>
